!!!OTL: LEB WOHL MEIN BRAEUTCHEN SCHOEN
!!!ARE: Europa, Mitteleuropa, Deutschland
!!!SCT: B0579
!!!YEM: Copyright 1995, estate of Helmut Schaffrath.
**kern
*ICvox
*Ivox
*M4/4
*k[f#c#]
*D:
{4a
=1
4f#
4d
4g
4b
=2
2a
4r}
{8dd
8a
=3
4f#
8.a
16f#
8.e
16d
8.e
16f#
=4
2d
8r}
{8d
8f#
8d
=5
4.a
8a
4.a
8a
=6
4cc#
4a
8r}
{8a
8f#
8d
=7
4.a
8a
4.a
8dd
=8
4cc#
4a
8r}
{8a
8b
8cc#
=9
4.dd
8cc#
8b
8a
8g
8f#
=10
2e
8r}
{8e
8f#
8g
=11
4a
8.b
16g
4f#
4e
=12
2d
8r}
{8a
8b
8cc#
=13
4.dd
8cc#
8b
8a
8g
8f#
=14
2e
8r}
{8e
8f#
8g
=15
4a
8.b
16g
4f#
4e
=16
2d
4r}
==
!!!AGN: Staende -, Soldaten - Lied, national
!!!ONB: ESAC (Essen Associative Code) Database: BOEHME
!!!AMT: simple quadruple
!!!AIN: vox
!!!EED: Helmut Schaffrath
!!!EEV: 1.0
*-
